X: 36927
T: Shorelines
R: waltz
M: 3/4
K: Eminor
M:4/4
JBd|e4-e3 {fe}d|Jf3 e{a/}d3B|{a/}d B/A/ JB6-|B3-B2Jc{c/}BG|
A2{BA}GE- E3B|JA4-AzJGF/E/|{A/}E8-|!>!E4z2JBd|Je4-e2z d|
Jf2{a/}fe{a/}d3B|{a/}dB JB6-|B3-B2Jc{c/}BG|A2{BA}GE- E3B|JA4-AzJF2-|
FE{A/}E6-|!>!E4z3 g/a/|Jb6-b a/g/|f4e/d/zz/ J(a/g/f/|
g2f/e/e6-|e4z3f/g/|{c'/}Ja8-|a4-{c'/}agf>JaJ|g2z2Jf>ed (3g/f/g/|
e e3-e2f/g/ Jag|Jf2eJB-B4|Je{a}ed (3B/A/B/A4|GFEE3-E2|

